assets/icons/explore_filled.svg

<svg width="25" height="24" viewBox="0 0 25 24" fill="none" xmlns="http://www.w3.org/2000/svg">
<path fill-rule="evenodd" clip-rule="evenodd" d="M2.13013 12.0005C2.13013 6.06343 6.94307 1.25049 12.8801 1.25049C18.8172 1.25049 23.6301 6.06343 23.6301 12.0005C23.6301 17.9376 18.8172 22.7505 12.8801 22.7505C6.94307 22.7505 2.13013 17.9376 2.13013 12.0005ZM14.573 7.47713L11.8406 8.60224C11.0163 8.94163 10.6042 9.11133 10.2976 9.41797C9.99097 9.7246 9.82127 10.1367 9.48188 10.961L8.35677 13.6934C7.51288 15.7429 7.09092 16.7676 7.60198 17.2787C8.11303 17.7897 9.13777 17.3678 11.1872 16.5239L13.9196 15.3987C14.7439 15.0594 15.156 14.8897 15.4626 14.583C15.7693 14.2764 15.939 13.8643 16.2783 13.04L17.4035 10.3076C18.2474 8.25813 18.6693 7.23339 18.1583 6.72234C17.6472 6.21128 16.6225 6.63323 14.573 7.47713ZM13.8801 12.0005C13.8801 11.4482 13.4324 11.0005 12.8801 11.0005C12.3278 11.0005 11.8801 11.4482 11.8801 12.0005V12.0105C11.8801 12.5628 12.3278 13.0105 12.8801 13.0105C13.4324 13.0105 13.8801 12.5628 13.8801 12.0105V12.0005Z" fill="white"/>
</svg>

<svg xmlns="http://www.w3.org/2000/svg" width="25" height="24" fill="none" viewBox="0 0 25 24"><path fill="#fff" fill-rule="evenodd" d="M2.13 12c0-5.937 4.813-10.75 10.75-10.75S23.63 6.063 23.63 12s-4.813 10.75-10.75 10.75S2.13 17.938 2.13 12m12.443-4.523-2.732 1.125c-.825.34-1.237.51-1.543.816-.307.307-.477.719-.816 1.543l-1.125 2.732c-.844 2.05-1.266 3.075-.755 3.586s1.536.089 3.585-.755l2.733-1.125c.824-.34 1.236-.51 1.543-.816.306-.307.476-.719.815-1.543l1.126-2.732c.843-2.05 1.265-3.075.754-3.586s-1.536-.089-3.585.755m-.693 4.524a1 1 0 1 0-2 0v.01a1 1 0 1 0 2 0z" clip-rule="evenodd"/></svg>
